X:1
T:Title
L:1/8
M:4/4
K:F
V:1 treble nm="Grand Piano"
V:1
 z4 z[Q:1/4=100] AA_A | A2 FG A2 B^F | A2 G2- GGG^F | G2 EF G2 A2 | F4- FAA_A | A2 FG A2 B^F | %6
 A2 G2- GGG^F | G2 EF G2 A2 | F4- FFGA | B2 B2- BBcB | B2 A2- AABA | G3 G F2 G2 | A4- AFGA | %13
 B2 B2- BBcB | B2 A2- AABA | G2 GA B2 AG | F6 z2 |] %17

